assets/images/footer-icon3.svg

<svg width="22" height="22" viewBox="0 0 22 22" fill="none" xmlns="http://www.w3.org/2000/svg">
<g id="icon">
<g id="icon_2">
<path fill-rule="evenodd" clip-rule="evenodd" d="M11 17C14.3137 17 17 14.3137 17 11C17 7.68629 14.3137 5 11 5C7.68629 5 5 7.68629 5 11C5 14.3137 7.68629 17 11 17ZM11 15C13.2091 15 15 13.2091 15 11C15 8.79086 13.2091 7 11 7C8.79086 7 7 8.79086 7 11C7 13.2091 8.79086 15 11 15Z" fill="#0F0F0F"/>
<path d="M17 4C16.4477 4 16 4.44772 16 5C16 5.55228 16.4477 6 17 6C17.5523 6 18 5.55228 18 5C18 4.44772 17.5523 4 17 4Z" fill="#0F0F0F"/>
<path fill-rule="evenodd" clip-rule="evenodd" d="M0.653961 3.27606C0 4.55953 0 6.23969 0 9.6V12.4C0 15.7603 0 17.4405 0.653961 18.7239C1.2292 19.8529 2.14708 20.7708 3.27606 21.346C4.55953 22 6.23969 22 9.6 22H12.4C15.7603 22 17.4405 22 18.7239 21.346C19.8529 20.7708 20.7708 19.8529 21.346 18.7239C22 17.4405 22 15.7603 22 12.4V9.6C22 6.23969 22 4.55953 21.346 3.27606C20.7708 2.14708 19.8529 1.2292 18.7239 0.653961C17.4405 0 15.7603 0 12.4 0H9.6C6.23969 0 4.55953 0 3.27606 0.653961C2.14708 1.2292 1.2292 2.14708 0.653961 3.27606ZM12.4 2H9.6C7.88684 2 6.72225 2.00156 5.82208 2.0751C4.94524 2.14674 4.49684 2.27659 4.18404 2.43597C3.43139 2.81947 2.81947 3.43139 2.43597 4.18404C2.27659 4.49684 2.14674 4.94524 2.0751 5.82208C2.00156 6.72225 2 7.88684 2 9.6V12.4C2 14.1132 2.00156 15.2777 2.0751 16.1779C2.14674 17.0548 2.27659 17.5032 2.43597 17.816C2.81947 18.5686 3.43139 19.1805 4.18404 19.564C4.49684 19.7234 4.94524 19.8533 5.82208 19.9249C6.72225 19.9984 7.88684 20 9.6 20H12.4C14.1132 20 15.2777 19.9984 16.1779 19.9249C17.0548 19.8533 17.5032 19.7234 17.816 19.564C18.5686 19.1805 19.1805 18.5686 19.564 17.816C19.7234 17.5032 19.8533 17.0548 19.9249 16.1779C19.9984 15.2777 20 14.1132 20 12.4V9.6C20 7.88684 19.9984 6.72225 19.9249 5.82208C19.8533 4.94524 19.7234 4.49684 19.564 4.18404C19.1805 3.43139 18.5686 2.81947 17.816 2.43597C17.5032 2.27659 17.0548 2.14674 16.1779 2.0751C15.2777 2.00156 14.1132 2 12.4 2Z" fill="#0F0F0F"/>
</g>
</g>
</svg>

<svg width="22" height="22" fill="none" xmlns="http://www.w3.org/2000/svg"><g fill="#0F0F0F"><path fill-rule="evenodd" clip-rule="evenodd" d="M11 17a6 6 0 1 0 0-12 6 6 0 0 0 0 12Zm0-2a4 4 0 1 0 0-8 4 4 0 0 0 0 8Z"/><path d="M17 4a1 1 0 1 0 0 2 1 1 0 0 0 0-2Z"/><path fill-rule="evenodd" clip-rule="evenodd" d="M.654 3.276C0 4.56 0 6.24 0 9.6v2.8c0 3.36 0 5.04.654 6.324a6 6 0 0 0 2.622 2.622C4.56 22 6.24 22 9.6 22h2.8c3.36 0 5.04 0 6.324-.654a6 6 0 0 0 2.622-2.622C22 17.44 22 15.76 22 12.4V9.6c0-3.36 0-5.04-.654-6.324A6 6 0 0 0 18.724.654C17.44 0 15.76 0 12.4 0H9.6C6.24 0 4.56 0 3.276.654A6 6 0 0 0 .654 3.276ZM12.4 2H9.6c-1.713 0-2.878.002-3.778.075-.877.072-1.325.202-1.638.361a4 4 0 0 0-1.748 1.748c-.16.313-.29.761-.36 1.638C2.001 6.722 2 7.887 2 9.6v2.8c0 1.713.002 2.878.075 3.778.072.877.202 1.325.361 1.638a4 4 0 0 0 1.748 1.748c.313.16.761.29 1.638.36.9.074 2.065.076 3.778.076h2.8c1.713 0 2.878-.002 3.778-.075.877-.072 1.325-.202 1.638-.361a4 4 0 0 0 1.748-1.748c.16-.313.29-.761.36-1.638.074-.9.076-2.065.076-3.778V9.6c0-1.713-.002-2.878-.075-3.778-.072-.877-.202-1.325-.361-1.638a4 4 0 0 0-1.748-1.748c-.313-.16-.761-.29-1.638-.36C15.278 2.001 14.113 2 12.4 2Z"/></g></svg>
